X:1
T:Signor che gia te stesso
T:Signor che gia te stesso
T:Tomaso Cecchino
T:Source : Canti Spirituali a uno, due et tre voci + BC ---Venetia---G.Vincent---1613. Editor : André Vierendeels (26/10/16).
T:Notes : Original clefs : C1, F4 Figures in BC are notated in original print 
T:©
T:©
C:Tomaso Cecchino
Z:©
%%score 1 2
L:1/8
Q:1/4=85
M:4/4
K:C
V:1 treble nm="Soprano" snm="S"
V:2 bass nm="MusicXML Part"
V:1
 z2 G2 G4 | z2 G2 A3 B | B3 c/d/ B2 d2 | e2 c2 B3 A | A4 A2 A2 | BABc d4 | z2 e3 B d2 | A4 G4 :: %8
w: Si- gnor|che gia te|stes- * * so, in|ci- bo'a l'al- me|de- sti, per|dar- ne del tuo'A- mor|se- gno piu'es-|pres- so,|
 z2 G2 A2 E2 | F3 D E4 | E2 A2 A2 B2 | cBcd e2 g2 | f2 e2 d3 c | B4 A4 :: z2 E2 F3 F | F2 A2 G4 | %16
w: e ren- der|noi piu de-|sti, a bei pen-|sier, _ _ _ _ a|bei pen- sier ce-|le- sti.|Per- do- na-|mi s'in- de-|
 G2 E2 F3 G | A2 B2 c2 e2 | g2 e2 d4 | c4 z2 B2 | c3 d e2 ^f2 | g2 B2 c4- | c2 B2 A4 | G8 :| %24
w: gno, mi mo- stri'a|si bel don à|si'al- to pe-|gno, mi|mo- stri'a si bel|don a si'al-|* tro pe-|gno.|
V:2
"^BC" G,8 |"^#" E,4 D,4 | G,,8 |"^#" C,4 E,4 |"^#" A,,4 A,,2 D,2 | G,,8 | C,4 E,2 B,,2 | %7
 D,4 G,,4 ::"^#" C,4 A,,4 |"^#" D,2 _B,,2 A,,4 |"^#""^#" A,,4 D,2 G,,2 | C,8 | D,8 | %13
"^#" E,4 A,,4 :: A,,4 F,,4 | F,,4 C,4 | C,4 D,4- | D,4 C,4- | C,4 G,4 | C,4 G,4 | A,4 A,4 | %21
 G,4 E,4 | D,8 | G,,8 :| %24

